src/modules/72-freeze-windows/images/freeze-windows-illustration.svg

<svg fill="none" height="101" viewBox="0 0 190 101" width="190" xmlns="http://www.w3.org/2000/svg"><path d="m45.3787 10.1853 141.8773-8.4978v80.9145l-144.0939 15.0376z" fill="#fffbee"/><path d="m56.0488 16.5455 120.8102-7.71542v68.25632l-120.8101 14.5415z" fill="#fff"/><g clip-rule="evenodd" fill="#000" fill-rule="evenodd"><path d="m189.992 1.27164c.016.27568-.194.5122-.47.52831-48.438 2.82903-96.5217 5.65695-149.9092 8.83925-.2757.0164-.5125-.1937-.5289-.4694-.0164-.27564.1937-.51242.4694-.52885 53.388-3.18231 101.4727-6.01025 149.9107-8.839303.276-.016101.512.194324.528.469993z"/><path d="m178.276 8.48063c.016.27567-.194.5122-.47.5283-25.019 1.46127-43.332 2.63857-62.548 3.87387-17.9965 1.1569-36.7841 2.3647-62.612 3.9042-.2757.0164-.5125-.1937-.5289-.4694-.0164-.2756.1937-.5124.4694-.5288 25.8078-1.5384 44.5996-2.7464 62.6015-3.9036 19.226-1.2359 37.551-2.41392 62.56-3.87457.275-.0161.512.19432.528.47z"/><path d="m180.043 76.7051c.023.2751-.18.5174-.456.5411-31.737 2.7399-51.817 5.1102-76.447 8.0178-13.5042 1.5941-28.3763 3.3497-47.2878 5.4163-.2745.03-.5213-.1683-.5513-.4428s.1682-.5213.4427-.5513c18.8925-2.0645 33.7584-3.8194 47.2614-5.4133 24.642-2.9089 44.744-5.2819 76.496-8.023.276-.0237.518.1801.542.4552z"/><path d="m189.284 81.8606c.029.2745-.17.5211-.444.5506-19.514 2.1015-36.56 4.339-52.901 6.4839-29.83 3.9156-57.3083 7.5223-93.1468 9.4286-.2758.0147-.5112-.1969-.5259-.4727-.0146-.2758.197-.5112.4728-.5259 35.8042-1.9044 63.2169-5.503 93.0199-9.4153 16.346-2.1459 33.411-4.3861 52.974-6.4928.274-.0296.521.169.551.4436z"/><path d="m185.604.449219c.277 0 .5.223857.5.5v80.257981c0 .2761-.223.5-.5.5-.276 0-.5-.2239-.5-.5v-80.257981c0-.276143.224-.5.5-.5z"/><path d="m44.5332 8.58008c.2761 0 .5.22386.5.5v91.21892c0 .276-.2239.5-.5.5s-.5-.224-.5-.5v-91.21892c0-.27614.2239-.5.5-.5z"/><path d="m55.7979 14.0195c.2761 0 .5.2239.5.5v77.4305c0 .2762-.2239.5-.5.5-.2762 0-.5-.2238-.5-.5v-77.4305c0-.2761.2238-.5.5-.5z"/><path d="m176.009 6.5957c.276 0 .5.22386.5.5v70.3591c0 .2762-.224.5-.5.5s-.5-.2238-.5-.5v-70.3591c0-.27614.224-.5.5-.5z"/><path d="m130.905 30.9413c.019.2754-.188.5145-.464.534-11.373.8053-22.317 1.0959-33.475 1.3923-8.4382.2241-16.9991.4515-25.9611.9071-.2758.0141-.5107-.1981-.5248-.4739-.014-.2758.1982-.5107.474-.5248 9.0244-.4588 17.5961-.6859 26.0311-.9095 11.1248-.2949 22.0118-.5834 33.3858-1.3887.275-.0195.514.188.534.4635z"/><path d="m94.2455 46.3595c-8.8738.406-17.8032.7185-21.8998.3246-.2748-.0264-.4762-.2706-.4498-.5455s.2707-.4763.5455-.4499c4.0084.3854 12.851.0794 21.7584-.3281 2.3484-.1074 4.6997-.2218 6.9642-.332 6.292-.3061 11.91-.5794 14.915-.5794.277 0 .5.2239.5.5 0 .2762-.223.5-.5.5-2.978 0-8.555.2713-14.835.5768-2.2705.1104-4.6333.2253-6.9985.3335z"/><path d="m114.63 59.387c.036.2739-.158.5246-.431.5601-8.814 1.1416-32.6556 1.5614-41.4691 1.2421-.2759-.01-.4915-.2418-.4815-.5178s.2418-.4916.5178-.4816c8.7898.3185 32.5698-.103 41.3038-1.2344.274-.0355.525.1577.56.4316z"/></g><path d="m14.6253 65.811c.4861-.7535.6934-1.421.7707-1.8569-.0107-.0375-.0215-.0752-.0321-.113 0-.6463.138-.4838.0321.113 1.8159 6.3291 4.8204 8.7722 7.3264 9.5242.6411-.2199 1.3266-.417 2.0594-.5882 4.402-1.028 1.7462 1.73-2.0594.5882-6.1767 2.1185-8.2272 6.3494-8.6865 9.7957.215.7735.4127 1.5997.5894 2.4806 1.0869 5.4181-1.2119 2.189-.5894-2.4806-1.767-6.3548-4.70972-9.1519-6.87863-9.5028-1.86825 1.5677-3.10039 2.272-2.33667 1.0003.47628-.7932 1.32175-1.1646 2.33667-1.0003 2.40067-2.0146 5.85173-5.4549 7.46803-7.9602z" fill="#fedf76"/><path clip-rule="evenodd" d="m15.9355 63.604c-.0019.0902-.0107.1972-.0281.318 1.7476 6.0038 4.5498 8.2916 6.8091 9.0297.6123-.2043 1.2622-.3882 1.9516-.5492.5671-.1324 1.0338-.2071 1.4083-.2348.3641-.0269.68-.0126.9238.0629.1224.0379.2653.1029.3806.2222.1288.1333.202.3147.1856.5133-.0148.1779-.097.3186-.1726.4144-.0783.099-.1752.1829-.2745.2534-.3863.2742-1.0278.4979-1.7937.5857-.7388.0846-1.6294.0472-2.5889-.2177-5.798 2.0437-7.7316 5.9981-8.1915 9.2375.2078.7568.3989 1.5616.5703 2.4161.2716 1.3538.3497 2.2427.2841 2.7211-.0165.1199-.0478.265-.1215.3929-.0794.1379-.2679.3386-.5732.3095-.2338-.0223-.383-.1749-.4463-.2477-.0793-.0912-.1451-.2007-.2-.3092-.2168-.4285-.4219-1.1638-.5364-2.0664-.1127-.888-.1421-1.9715.0048-3.1457-.8669-3.0784-2.0067-5.2702-3.1704-6.7276-1.09115-1.3665-2.17883-2.0592-3.06325-2.2745-.85337.706-1.5991 1.2509-2.07591 1.4787-.12585.0601-.28027.1219-.43632.1374-.08037.008-.19938.0079-.32467-.044-.1414-.0586-.25502-.169-.31627-.314-.05438-.1288-.05393-.2518-.04461-.336.00968-.0874.03313-.17.05904-.242.05164-.1436.13458-.3036.23733-.4747.55368-.922 1.5132-1.3688 2.6104-1.2664 2.37588-2.0183 5.66286-5.3208 7.20286-7.7077.4071-.631.5962-1.1875.6771-1.5642l-.0184-.0653v-.0693c0-.1739.0089-.3167.0269-.4228.0065-.0376.0228-.1307.071-.2201.0144-.0266.041-.071.0847-.1163.0421-.0437.1271-.1162.2589-.1447.3319-.0718.5098.1831.5396.2314.0447.0724.062.1407.0684.1674.0085.0359.0132.0694.0161.0965.0059.0548.0073.1136.006.1722zm-7.75559 9.9467c.97874.4069 1.99809 1.2054 2.95809 2.4077 1.0236 1.282 1.9986 3.0446 2.8068 5.35.86-2.8951 2.9507-5.9563 7.4031-7.8409-2.1611-1.0779-4.4072-3.4115-5.9798-7.9431-.0926.1798-.1996.3661-.3226.5569l-.4202-.2711.4202.2711c-1.5021 2.3281-4.5161 5.405-6.86559 7.4694zm18.53819-.36c0 .0001-.0009-.0003-.0025-.001.0017.0006.0025.001.0025.001zm-10.8397-9.6137c.0001.0001-.0004.003-.0017.0081.001-.0058.0016-.0083.0017-.0081z" fill="#000" fill-rule="evenodd"/><path d="m13.1119 58.8221c-3.48265.6492-5.76009 2.7798-6.08139 4.8717.05622.2047.09135.3969.10283.572.12832 1.9568-.2645.5971-.11051-.5194.00242-.0175.00498-.0351.00768-.0526-.48707-1.7734-2.55707-4.482-4.54615-5.0929-.57169.1415-1.21274.2212-1.931626.2212.591246-.3942 1.256776-.4284 1.931626-.2212 4.57363-1.1321 4.70772-6.2252 4.73739-6.1925.64301 3.0264.53303 5.8779 5.89015 6.4137z" fill="#fedf76"/><path clip-rule="evenodd" d="m2.4907 58.0835c-.74151-.1955-1.516-.143-2.215277.3232-.1833285.1222-.2650449.3501-.2011958.5609.0638488.2109.2582128.3551.4785458.3551.697867 0 1.332367-.0713 1.908917-.2019.82791.2955 1.71585 1.0163 2.4777 1.9147.76471.9017 1.34313 1.9123 1.58131 2.6957-.07477.6031-.01483 1.26.06482 1.5574.01106.0413.02785.0967.05348.1515.0124.0266.03515.0711.07208.1179.02902.0367.11646.1394.27414.1815.20409.0545.37961-.0262.48117-.1215.08107-.076.11742-.1595.13112-.1935.03054-.076.04175-.1511.04718-.1943.02309-.1836.01952-.51-.01238-.9964-.0119-.1815-.04372-.37-.09084-.5613.33439-1.7789 2.35945-3.7426 5.66213-4.3582.2446-.0456.4185-.2641.4079-.5127-.0105-.2486-.2022-.4516-.4498-.4764-2.587-.2587-3.72626-1.0588-4.33841-2.04-.31923-.5117-.51781-1.1076-.67635-1.7863-.07912-.3387-.14672-.6907-.2157-1.0593-.00885-.0473-.01772-.0948-.02664-.1427-.06007-.322-.12236-.6559-.19373-.9918-.01841-.0866-.05952-.1669-.11911-.2324-.06729-.074-.24106-.2085-.48601-.1503-.18898.045-.2803.1791-.29945.2076-.04902.0728-.06677.1432-.06844.1499-.00006.0002-.0001.0003-.00012.0004-.00881.0325-.0129.061-.01389.0679l-.00011.0008c-.00294.0202-.0054.0436-.0071.0599-.00118.0113-.00239.0232-.00369.036-.00331.0326-.0072.0709-.01256.119-.01457.1305-.03864.3197-.08028.5513-.08355.4647-.23693 1.0945-.52209 1.7552-.55651 1.2892-1.60003 2.671-3.60732 3.2131zm4.16066 7.0295c-.00002-.0002.0002-.0017.00074-.0045-.00044.0032-.00072.0046-.00074.0045zm.32987-2.8471c.69692-1.3684 2.09992-2.585 3.97597-3.3391-1.47285-.4403-2.3915-1.1652-2.98234-2.1123-.38639-.6193-.61307-1.3042-.78011-1.9972-.0537.1473-.11304.2974-.17861.4494-.53693 1.2438-1.50298 2.6207-3.22351 3.4084.69967.4449 1.35448 1.0592 1.90943 1.7136.50201.5919.94458 1.243 1.27917 1.8772z" fill="#000" fill-rule="evenodd"/></svg>

<svg width="190" height="101" viewBox="0 0 190 101" fill="none" xmlns="http://www.w3.org/2000/svg">
<path d="M45.3787 10.1853L187.256 1.6875V82.602L43.1621 97.6396L45.3787 10.1853Z" fill="#FFFBEE"/>
<path d="M56.0488 16.5455L176.859 8.83008V77.0864L56.0489 91.6279L56.0488 16.5455Z" fill="white"/>
<path fill-rule="evenodd" clip-rule="evenodd" d="M189.992 1.27164C190.008 1.54732 189.798 1.78384 189.522 1.79995C141.084 4.62898 93.0003 7.4569 39.6128 10.6392C39.3371 10.6556 39.1003 10.4455 39.0839 10.1698C39.0675 9.89416 39.2776 9.65738 39.5533 9.64095C92.9413 6.45864 141.026 3.6307 189.464 0.801647C189.74 0.785546 189.976 0.995971 189.992 1.27164Z" fill="black"/>
<path fill-rule="evenodd" clip-rule="evenodd" d="M178.276 8.48063C178.292 8.7563 178.082 8.99283 177.806 9.00893C152.787 10.4702 134.474 11.6475 115.258 12.8828C97.2615 14.0397 78.4739 15.2475 52.646 16.787C52.3703 16.8034 52.1335 16.5933 52.1171 16.3176C52.1007 16.042 52.3108 15.8052 52.5865 15.7888C78.3943 14.2504 97.1861 13.0424 115.188 11.8852C134.414 10.6493 152.739 9.47128 177.748 8.01063C178.023 7.99453 178.26 8.20495 178.276 8.48063Z" fill="black"/>
<path fill-rule="evenodd" clip-rule="evenodd" d="M180.043 76.7051C180.066 76.9802 179.863 77.2225 179.587 77.2462C147.85 79.9861 127.77 82.3564 103.14 85.264C89.6358 86.8581 74.7637 88.6137 55.8522 90.6803C55.5777 90.7103 55.3309 90.512 55.3009 90.2375C55.2709 89.963 55.4691 89.7162 55.7436 89.6862C74.6361 87.6217 89.502 85.8668 103.005 84.2729C127.647 81.364 147.749 78.991 179.501 76.2499C179.777 76.2262 180.019 76.43 180.043 76.7051Z" fill="black"/>
<path fill-rule="evenodd" clip-rule="evenodd" d="M189.284 81.8606C189.313 82.1351 189.114 82.3817 188.84 82.4112C169.326 84.5127 152.28 86.7502 135.939 88.8951C106.109 92.8107 78.6307 96.4174 42.7922 98.3237C42.5164 98.3384 42.281 98.1268 42.2663 97.851C42.2517 97.5752 42.4633 97.3398 42.7391 97.3251C78.5433 95.4207 105.956 91.8221 135.759 87.9098C152.105 85.7639 169.17 83.5237 188.733 81.417C189.007 81.3874 189.254 81.586 189.284 81.8606Z" fill="black"/>
<path fill-rule="evenodd" clip-rule="evenodd" d="M185.604 0.449219C185.881 0.449219 186.104 0.673076 186.104 0.949219V81.2072C186.104 81.4833 185.881 81.7072 185.604 81.7072C185.328 81.7072 185.104 81.4833 185.104 81.2072V0.949219C185.104 0.673076 185.328 0.449219 185.604 0.449219Z" fill="black"/>
<path fill-rule="evenodd" clip-rule="evenodd" d="M44.5332 8.58008C44.8093 8.58008 45.0332 8.80394 45.0332 9.08008V100.299C45.0332 100.575 44.8093 100.799 44.5332 100.799C44.2571 100.799 44.0332 100.575 44.0332 100.299V9.08008C44.0332 8.80394 44.2571 8.58008 44.5332 8.58008Z" fill="black"/>
<path fill-rule="evenodd" clip-rule="evenodd" d="M55.7979 14.0195C56.074 14.0195 56.2979 14.2434 56.2979 14.5195V91.95C56.2979 92.2262 56.074 92.45 55.7979 92.45C55.5217 92.45 55.2979 92.2262 55.2979 91.95V14.5195C55.2979 14.2434 55.5217 14.0195 55.7979 14.0195Z" fill="black"/>
<path fill-rule="evenodd" clip-rule="evenodd" d="M176.009 6.5957C176.285 6.5957 176.509 6.81956 176.509 7.0957V77.4548C176.509 77.731 176.285 77.9548 176.009 77.9548C175.733 77.9548 175.509 77.731 175.509 77.4548V7.0957C175.509 6.81956 175.733 6.5957 176.009 6.5957Z" fill="black"/>
<path fill-rule="evenodd" clip-rule="evenodd" d="M130.905 30.9413C130.924 31.2167 130.717 31.4558 130.441 31.4753C119.068 32.2806 108.124 32.5712 96.966 32.8676C88.5278 33.0917 79.9669 33.3191 71.0049 33.7747C70.7291 33.7888 70.4942 33.5766 70.4801 33.3008C70.4661 33.025 70.6783 32.7901 70.9541 32.776C79.9785 32.3172 88.5502 32.0901 96.9852 31.8665C108.11 31.5716 118.997 31.2831 130.371 30.4778C130.646 30.4583 130.885 30.6658 130.905 30.9413Z" fill="black"/>
<path fill-rule="evenodd" clip-rule="evenodd" d="M94.2455 46.3595C85.3717 46.7655 76.4423 47.078 72.3457 46.6841C72.0709 46.6577 71.8695 46.4135 71.8959 46.1386C71.9223 45.8637 72.1666 45.6623 72.4414 45.6887C76.4498 46.0741 85.2924 45.7681 94.1998 45.3606C96.5482 45.2532 98.8995 45.1388 101.164 45.0286C107.456 44.7225 113.074 44.4492 116.079 44.4492C116.356 44.4492 116.579 44.6731 116.579 44.9492C116.579 45.2254 116.356 45.4492 116.079 45.4492C113.101 45.4492 107.524 45.7205 101.244 46.026C98.9735 46.1364 96.6107 46.2513 94.2455 46.3595Z" fill="black"/>
<path fill-rule="evenodd" clip-rule="evenodd" d="M114.63 59.387C114.666 59.6609 114.472 59.9116 114.199 59.9471C105.385 61.0887 81.5434 61.5085 72.7299 61.1892C72.454 61.1792 72.2384 60.9474 72.2484 60.6714C72.2584 60.3954 72.4902 60.1798 72.7662 60.1898C81.556 60.5083 105.336 60.0868 114.07 58.9554C114.344 58.9199 114.595 59.1131 114.63 59.387Z" fill="black"/>
<path d="M14.6253 65.811C15.1114 65.0575 15.3187 64.39 15.396 63.9541C15.3853 63.9166 15.3745 63.8789 15.3639 63.8411C15.3639 63.1948 15.5019 63.3573 15.396 63.9541C17.2119 70.2832 20.2164 72.7263 22.7224 73.4783C23.3635 73.2584 24.049 73.0613 24.7818 72.8901C29.1838 71.8621 26.528 74.6201 22.7224 73.4783C16.5457 75.5968 14.4952 79.8277 14.0359 83.274C14.2509 84.0475 14.4486 84.8737 14.6253 85.7546C15.7122 91.1727 13.4134 87.9436 14.0359 83.274C12.2689 76.9192 9.32618 74.1221 7.15727 73.7712C5.28902 75.3389 4.05688 76.0432 4.8206 74.7715C5.29688 73.9783 6.14235 73.6069 7.15727 73.7712C9.55794 71.7566 13.009 68.3163 14.6253 65.811Z" fill="#FEDF76"/>
<path fill-rule="evenodd" clip-rule="evenodd" d="M15.9355 63.604C15.9336 63.6942 15.9248 63.8012 15.9074 63.922C17.655 69.9258 20.4572 72.2136 22.7165 72.9517C23.3288 72.7474 23.9787 72.5635 24.6681 72.4025C25.2352 72.2701 25.7019 72.1954 26.0764 72.1677C26.4405 72.1408 26.7564 72.1551 27.0002 72.2306C27.1226 72.2685 27.2655 72.3335 27.3808 72.4528C27.5096 72.5861 27.5828 72.7675 27.5664 72.9661C27.5516 73.144 27.4694 73.2847 27.3938 73.3805C27.3155 73.4795 27.2186 73.5634 27.1193 73.6339C26.733 73.9081 26.0915 74.1318 25.3256 74.2196C24.5868 74.3042 23.6962 74.2668 22.7367 74.0019C16.9387 76.0456 15.0051 80 14.5452 83.2394C14.753 83.9962 14.9441 84.801 15.1155 85.6555C15.3871 87.0093 15.4652 87.8982 15.3996 88.3766C15.3831 88.4965 15.3518 88.6416 15.2781 88.7695C15.1987 88.9074 15.0102 89.1081 14.7049 89.079C14.4711 89.0567 14.3219 88.9041 14.2586 88.8313C14.1793 88.7401 14.1135 88.6306 14.0586 88.5221C13.8418 88.0936 13.6367 87.3583 13.5222 86.4557C13.4095 85.5677 13.3801 84.4842 13.527 83.31C12.6601 80.2316 11.5203 78.0398 10.3566 76.5824C9.26545 75.2159 8.17777 74.5232 7.29335 74.3079C6.43998 75.0139 5.69425 75.5588 5.21744 75.7866C5.09159 75.8467 4.93717 75.9085 4.78112 75.924C4.70075 75.932 4.58174 75.9319 4.45645 75.88C4.31505 75.8214 4.20143 75.711 4.14018 75.566C4.0858 75.4372 4.08625 75.3142 4.09557 75.23C4.10525 75.1426 4.1287 75.06 4.15461 74.988C4.20625 74.8444 4.28919 74.6844 4.39194 74.5133C4.94562 73.5913 5.90514 73.1445 7.00234 73.2469C9.37822 71.2286 12.6652 67.9261 14.2052 65.5392C14.6123 64.9082 14.8014 64.3517 14.8823 63.975L14.8639 63.9097V63.8404C14.8639 63.6665 14.8728 63.5237 14.8908 63.4176C14.8973 63.38 14.9136 63.2869 14.9618 63.1975C14.9762 63.1709 15.0028 63.1265 15.0465 63.0812C15.0886 63.0375 15.1736 62.965 15.3054 62.9365C15.6373 62.8647 15.8152 63.1196 15.845 63.1679C15.8897 63.2403 15.907 63.3086 15.9134 63.3353C15.9219 63.3712 15.9266 63.4047 15.9295 63.4318C15.9354 63.4866 15.9368 63.5454 15.9355 63.604ZM8.17991 73.5507C9.15865 73.9576 10.178 74.7561 11.138 75.9584C12.1616 77.2404 13.1366 79.003 13.9448 81.3084C14.8048 78.4133 16.8955 75.3521 21.3479 73.4675C19.1868 72.3896 16.9407 70.056 15.3681 65.5244C15.2755 65.7042 15.1685 65.8905 15.0455 66.0813L14.6253 65.8102L15.0455 66.0813C13.5434 68.4094 10.5294 71.4863 8.17991 73.5507ZM26.7181 73.1907C26.7181 73.1908 26.7172 73.1904 26.7156 73.1897C26.7173 73.1903 26.7181 73.1907 26.7181 73.1907ZM15.8784 63.577C15.8785 63.5771 15.878 63.58 15.8767 63.5851C15.8777 63.5793 15.8783 63.5768 15.8784 63.577Z" fill="black"/>
<path d="M13.1119 58.8221C9.62925 59.4713 7.35181 61.6019 7.03051 63.6938C7.08673 63.8985 7.12186 64.0907 7.13334 64.2658C7.26166 66.2226 6.86884 64.8629 7.02283 63.7464C7.02525 63.7289 7.02781 63.7113 7.03051 63.6938C6.54344 61.9204 4.47344 59.2118 2.48436 58.6009C1.91267 58.7424 1.27162 58.8221 0.552734 58.8221C1.14398 58.4279 1.80951 58.3937 2.48436 58.6009C7.05799 57.4688 7.19208 52.3757 7.22175 52.4084C7.86476 55.4348 7.75478 58.2863 13.1119 58.8221Z" fill="#FEDF76"/>
<path fill-rule="evenodd" clip-rule="evenodd" d="M2.4907 58.0835C1.74919 57.888 0.9747 57.9405 0.275423 58.4067C0.0920945 58.5289 0.0103781 58.7568 0.0742272 58.9676C0.138076 59.1785 0.33244 59.3227 0.552773 59.3227C1.25064 59.3227 1.88514 59.2514 2.46169 59.1208C3.2896 59.4163 4.17754 60.1371 4.93939 61.0355C5.7041 61.9372 6.28252 62.9478 6.5207 63.7312C6.44593 64.3343 6.50587 64.9912 6.58552 65.2886C6.59658 65.3299 6.61337 65.3853 6.639 65.4401C6.6514 65.4667 6.67415 65.5112 6.71108 65.558C6.7401 65.5947 6.82754 65.6974 6.98522 65.7395C7.18931 65.794 7.36483 65.7133 7.46639 65.618C7.54746 65.542 7.58381 65.4585 7.59751 65.4245C7.62805 65.3485 7.63926 65.2734 7.64469 65.2302C7.66778 65.0466 7.66421 64.7202 7.63231 64.2338C7.62041 64.0523 7.58859 63.8638 7.54147 63.6725C7.87586 61.8936 9.90092 59.9299 13.2036 59.3143C13.4482 59.2687 13.6221 59.0502 13.6115 58.8016C13.601 58.553 13.4093 58.35 13.1617 58.3252C10.5747 58.0665 9.43544 57.2664 8.82329 56.2852C8.50406 55.7735 8.30548 55.1776 8.14694 54.4989C8.06782 54.1602 8.00022 53.8082 7.93124 53.4396C7.92239 53.3923 7.91352 53.3448 7.9046 53.2969C7.84453 52.9749 7.78224 52.641 7.71087 52.3051C7.69246 52.2185 7.65135 52.1382 7.59176 52.0727C7.52447 51.9987 7.3507 51.8642 7.10575 51.9224C6.91677 51.9674 6.82545 52.1015 6.8063 52.13C6.75728 52.2028 6.73953 52.2732 6.73786 52.2799C6.7378 52.2801 6.73776 52.2802 6.73774 52.2803C6.72893 52.3128 6.72484 52.3413 6.72385 52.3482L6.72374 52.349C6.7208 52.3692 6.71834 52.3926 6.71664 52.4089C6.71546 52.4202 6.71425 52.4321 6.71295 52.4449C6.70964 52.4775 6.70575 52.5158 6.70039 52.5639C6.68582 52.6944 6.66175 52.8836 6.62011 53.1152C6.53656 53.5799 6.38318 54.2097 6.09802 54.8704C5.54151 56.1596 4.49799 57.5414 2.4907 58.0835ZM6.65136 65.113C6.65134 65.1128 6.65156 65.1113 6.6521 65.1085C6.65166 65.1117 6.65138 65.1131 6.65136 65.113ZM6.98123 62.2659C7.67815 60.8975 9.08115 59.6809 10.9572 58.9268C9.48435 58.4865 8.5657 57.7616 7.97486 56.8145C7.58847 56.1952 7.36179 55.5103 7.19475 54.8173C7.14105 54.9646 7.08171 55.1147 7.01614 55.2667C6.47921 56.5105 5.51316 57.8874 3.79263 58.6751C4.4923 59.12 5.14711 59.7343 5.70206 60.3887C6.20407 60.9806 6.64664 61.6317 6.98123 62.2659Z" fill="black"/>
</svg>
